!!!OTL: Jinri fanqu dabianyang
!!!ARE: Asia, China,ÿHenan Xihua
!! IV, 117
!!!SCT: C1938
!!!YEM: Copyright 1995, estate of Helmut Schaffrath.
**kern
*ICvox
*Ivox
*M2/4
*k[b-]
*F:
{8cc
8cc
16dd
16cc
16dd
16ff
=1
8.cc
16a
4cc
=2
8cc
16dd
16ff
8cc
8a
=3
16g
16a
16g
16f
4g}
=4
{8.g
16a
8cc
8cc
=5
8.ff
16dd
8cc
8a
=6
16g
16g
16a
16a
8g
8d
=7
8f
4.c}
=8
{8.g
16a
4cc
=9
8ff
8dd
4cc
=10
8a
8g
8a
8f
=11
2g}
=12
{8.cc
16a
8cc
8dd
=13
8ff
8dd
8cc
8a
=14
8g
8a
8g
8d
=15
8f
4.c}
==
!!!AGN: Xiaodiao, Shiersi
!!!AMT: simple duple
!!!AIN: vox
!!!EED: Helmut Schaffrath
!!!EEV: 1.0
*-
